packages/components/icons/assets/ClockFill.svg

<svg viewBox="0 0 24 24" xmlns="http://www.w3.org/2000/svg" data-title="ClockFill" fill="currentColor" stroke="none">
  <path d="M12 2C6.47155 2 2 6.45344 2 11.9595C2 17.4656 6.47155 22 12 22C17.5285 22 22 17.5466 22 12.0405C22 6.53441 17.5285 2 12 2ZM16.1463 16.8178C15.9837 16.9798 15.7398 17.0607 15.4959 17.0607C15.252 17.0607 14.9268 16.9798 14.7642 16.7368L11.187 12.6073C11.0244 12.4453 10.9431 12.2024 10.9431 11.9595V8.47773C10.9431 7.91093 11.3496 7.50607 11.9187 7.50607C12.4878 7.50607 12.8943 7.91093 12.8943 8.47773V11.5547L16.2276 15.3603C16.6341 15.8462 16.5528 16.4939 16.1463 16.8178Z"/>
</svg>

<svg viewBox="0 0 24 24" xmlns="http://www.w3.org/2000/svg" data-title="ClockFill" fill="currentColor" stroke="none">
  <path d="m12,2C6.47,2,2,6.45,2,11.96s4.47,10.04,10,10.04,10-4.45,10-9.96S17.53,2,12,2Zm4.15,14.82c-.16.16-.41.24-.65.24s-.57-.08-.73-.32l-3.58-4.13c-.16-.16-.24-.4-.24-.65v-3.48c0-.57.41-.97.98-.97s.98.4.98.97v3.08l3.33,3.81c.41.49.33,1.13-.08,1.46Z"/>
</svg>
